X:1
T:Title
%%score { ( 1 3 ) | ( 2 4 ) }
L:1/8
Q:1/4=106
M:4/4
K:Ab
V:1 treble nm="Grand Piano"
V:3 treble 
V:2 bass 
V:4 bass 
V:1
 [Cc]2 [CG]2 [CB]2 [CA]2 | [DG]4 [Gd]4 | [FAd]2 [EAc]2 [=DFc]2 [_DGB]2 |[M:3/4] A6 |[M:1/4] E2 | %5
w: R.~DeWitt~Mallary * * *|||||
[M:4/4] =E3 E F2 G2 | A4 [FB]2 [Fc]2 | [Fd]2 [Ac]2 [FB]2 [FA]2 |[M:3/4] [EB]6 |[M:1/4] [GB]2 | %10
w: |||||
[M:4/4] e2 e2 f2 e2 | [_Ge]4 [Fd]2 [Fd]2 | d2 c2 F2 c2 |[M:3/4] [Ec]4 [=DB]2 |[M:1/4] [=DB]2 | %15
w: |||||
[M:4/4] B2 c2 B2 E2 | [CE]4 [CA]2 E2 | A2 c2 e3 [G,DE] | [A,CA]8 |] %19
w: ||||
V:2
 [A,,E,]2 [A,,E,]2 [A,,E,]2 [A,,E,]2 | [B,,E,]4 [E,B,]4 | E,2 E,2 E,2 E,2 |[M:3/4] [A,C]6 | %4
[M:1/4] [A,C]2 |[M:4/4] [G,B,C]3 [G,B,C] [F,A,C]2 [=E,C]2 | [F,A,C]4 [D,A,]2 [C,=A,]2 | %7
 [B,,B,]2 [C,E,]2 [D,A,]2 [=D,B,]2 |[M:3/4] [E,G,]6 |[M:1/4] E z | %10
[M:4/4][K:treble] [A,C_G]2 [A,CG]2 [A,B,G]2 [A,CG]2 | [D,A,]4 [D,A,]2 [D,A,]2 | %12
 [F,=A,E]2 [F,A,E]2 [F,A,E]2 [F,A,E]2 |[M:3/4] [B,,=A,]4 [B,,B,]2 |[M:1/4] B, z | %15
[M:4/4] [E,G,D]2 [E,G,D]2 [E,G,D]2 [E,G,D]2 | [A,,A,]4 [A,,A,]2 E,2 | A,2 C2 E3 E, | A,,8 |] %19
V:3
 x8 | x8 | x8 |[M:3/4] x6 |[M:1/4] x2 |[M:4/4] x8 | x8 | x8 |[M:3/4] x6 |[M:1/4] z D |[M:4/4] x8 | %11
 x8 | x8 |[M:3/4] x6 |[M:1/4] z A, |[M:4/4] x8 | x8 | x8 | x8 |] %19
V:4
 x8 | x8 | x8 |[M:3/4] x6 |[M:1/4] x2 |[M:4/4] x8 | x8 | x8 |[M:3/4] x6 |[M:1/4] E,2 | %10
[M:4/4][K:treble] x8 | x8 | x8 |[M:3/4] x6 |[M:1/4] B,,2 |[M:4/4] x8 | x8 | x8 | x8 |] %19

